SVG_Azure_All/SQL Database Performance Overview.svg

<?xml version="1.0" encoding="UTF-8" standalone="no"?>
<!-- Generated by Microsoft Visio, SVG Export SQL Database Performance Overview.svg Page-1 -->

<svg
   xmlns:dc="http://purl.org/dc/elements/1.1/"
   xmlns:cc="http://creativecommons.org/ns#"
   xmlns:rdf="http://www.w3.org/1999/02/22-rdf-syntax-ns#"
   xmlns:svg="http://www.w3.org/2000/svg"
   xmlns="http://www.w3.org/2000/svg"
   xmlns:sodipodi="http://sodipodi.sourceforge.net/DTD/sodipodi-0.dtd"
   xmlns:inkscape="http://www.inkscape.org/namespaces/inkscape"
   width="0.78743136in"
   height="0.78745496in"
   viewBox="0 0 56.695056 56.696898"
   xml:space="preserve"
   class="st8"
   version="1.1"
   id="svg57"
   sodipodi:docname="SQL Database Performance Overview.svg"
   style="font-size:12px;overflow:visible;color-interpolation-filters:sRGB;fill:none;fill-rule:evenodd;stroke-linecap:square;stroke-miterlimit:3"
   inkscape:version="0.92.5 (2060ec1f9f, 2020-04-08)"><metadata
   id="metadata63"><rdf:RDF><cc:Work
       rdf:about=""><dc:format>image/svg+xml</dc:format><dc:type
         rdf:resource="http://purl.org/dc/dcmitype/StillImage" /></cc:Work></rdf:RDF></metadata><defs
   id="defs61" /><sodipodi:namedview
   pagecolor="#ffffff"
   bordercolor="#666666"
   borderopacity="1"
   objecttolerance="10"
   gridtolerance="10"
   guidetolerance="10"
   inkscape:pageopacity="0"
   inkscape:pageshadow="2"
   inkscape:window-width="640"
   inkscape:window-height="480"
   id="namedview59"
   showgrid="false"
   inkscape:zoom="1.8365233"
   inkscape:cx="37.795184"
   inkscape:cy="18.900351"
   inkscape:window-x="0"
   inkscape:window-y="0"
   inkscape:window-maximized="0"
   inkscape:current-layer="svg57" />
	<style
   type="text/css"
   id="style2">
	<![CDATA[
		.st1 {fill:none;stroke:none;stroke-linecap:butt;stroke-width:0.0435215}
		.st2 {fill:#57a300;stroke:none;stroke-linecap:butt;stroke-width:0.0435215}
		.st3 {fill:#b8d432;stroke:none;stroke-linecap:butt;stroke-width:0.0435215}
		.st4 {fill:#ffb900;stroke:none;stroke-linecap:butt;stroke-width:0.0435215}
		.st5 {fill:#dd5900;stroke:none;stroke-linecap:butt;stroke-width:0.0435215}
		.st6 {fill:#49a5dc;stroke:none;stroke-linecap:butt;stroke-width:0.0435215}
		.st7 {fill:#83e7f1;stroke:none;stroke-linecap:butt;stroke-width:0.0435215}
		.st8 {fill:none;fill-rule:evenodd;font-size:12px;overflow:visible;stroke-linecap:square;stroke-miterlimit:3}
	]]>
	</style>

	<g
   id="g55"
   transform="translate(-5.6693772,-5.6674)">
		<title
   id="title4">Page-1</title>
		<g
   id="group1342-1"
   transform="translate(5.66929,-34.0157)">
			<title
   id="title6">SQL Database Performance Overview</title>
			<g
   id="group1343-2">
				<title
   id="title8">Sheet.1343</title>
				<g
   id="shape1344-3">
					<title
   id="title10">Sheet.1344</title>
					<rect
   x="0"
   y="39.689098"
   width="56.692902"
   height="56.6889"
   class="st1"
   id="rect12"
   style="fill:none;stroke:none;stroke-width:0.0435215;stroke-linecap:butt" />
				</g>
				<g
   id="shape1345-5"
   transform="translate(0.0604746,-30.2311)">
					<title
   id="title15">Sheet.1345</title>
					<path
   d="M 6.44,80.13 C 2.75,84.6 0.39,90.22 0,96.38 h 15.18 c 0.27,-2 0.99,-3.85 2.06,-5.46 z"
   class="st2"
   id="path17"
   inkscape:connector-curvature="0"
   style="fill:#57a300;stroke:none;stroke-width:0.0435215;stroke-linecap:butt" />
				</g>
				<g
   id="shape1346-7"
   transform="translate(10.2807,-39.4669)">
					<title
   id="title20">Sheet.1346</title>
					<path
   d="M 16.18,79.15 C 10.05,79.56 4.45,81.9 0,85.59 l 10.79,10.79 c 1.6,-1.05 3.42,-1.76 5.39,-2.05 z"
   class="st3"
   id="path22"
   inkscape:connector-curvature="0"
   style="fill:#b8d432;stroke:none;stroke-width:0.0435215;stroke-linecap:butt" />
				</g>
				<g
   id="shape1347-9"
   transform="translate(30.2413,-39.4669)">
					<title
   id="title25">Sheet.1347</title>
					<path
   d="M 16.17,85.59 C 11.72,81.91 6.13,79.56 0,79.15 v 15.18 c 1.97,0.29 3.79,1 5.38,2.05 z"
   class="st4"
   id="path27"
   inkscape:connector-curvature="0"
   style="fill:#ffb900;stroke:none;stroke-width:0.0435215;stroke-linecap:butt" />
				</g>
				<g
   id="shape1348-11"
   transform="translate(39.4052,-26.5223)">
					<title
   id="title30">Sheet.1348</title>
					<path
   d="m 17.22,96.38 c 0.04,-0.63 0.07,-1.26 0.07,-1.89 0,-6.87 -2.44,-13.16 -6.5,-18.07 L 0,87.21 c 1.37,2.09 2.17,4.59 2.17,7.28 0,0.64 -0.04,1.27 -0.13,1.89 z"
   class="st5"
   id="path32"
   inkscape:connector-curvature="0"
   style="fill:#dd5900;stroke:none;stroke-width:0.0435215;stroke-linecap:butt" />
				</g>
				<g
   id="shape1349-13"
   transform="translate(0.0604746,-10.2074)">
					<title
   id="title35">Sheet.1349</title>
					<path
   d="M 6.44,96.38 C 2.75,91.91 0.39,86.28 0,80.13 h 15.18 c 0.27,1.99 0.99,3.85 2.06,5.46 z"
   class="st2"
   id="path37"
   inkscape:connector-curvature="0"
   style="fill:#57a300;stroke:none;stroke-width:0.0435215;stroke-linecap:butt" />
				</g>
				<g
   id="group1350-15"
   transform="translate(3.78168)">
					<title
   id="title40">Sheet.1350</title>
					<g
   id="shape1351-16">
						<title
   id="title42">Sheet.1351</title>
						<path
   d="m 28.21,81.23 9.58,9.58 v 5.57 H 32.22 L 22.64,86.8 c -2.22,1.27 -4.79,2.01 -7.53,2.01 C 6.77,88.81 0,82.03 0,73.69 0,65.37 6.79,58.58 15.11,58.58 c 8.34,0 15.12,6.77 15.12,15.11 0,2.74 -0.73,5.32 -2.02,7.54 z"
   class="st6"
   id="path44"
   inkscape:connector-curvature="0"
   style="fill:#49a5dc;stroke:none;stroke-width:0.0435215;stroke-linecap:butt" />
					</g>
					<g
   id="shape1352-18"
   transform="translate(3.77765,-11.3483)">
						<title
   id="title47">Sheet.1352</title>
						<path
   d="M 22.67,85.04 C 22.67,78.78 17.59,73.71 11.33,73.71 5.07,73.71 0,78.77 0,85.04 c 0,6.25 5.08,11.34 11.33,11.34 6.28,0 11.34,-5.07 11.34,-11.34 z"
   class="st7"
   id="path49"
   inkscape:connector-curvature="0"
   style="fill:#83e7f1;stroke:none;stroke-width:0.0435215;stroke-linecap:butt" />
					</g>
				</g>
			</g>
		</g>
	</g>
</svg>

<?xml version="1.0" encoding="UTF-8" standalone="no"?>
<!DOCTYPE svg PUBLIC "-//W3C//DTD SVG 1.1//EN" "http://www.w3.org/Graphics/SVG/1.1/DTD/svg11.dtd">
<!-- Generated by Microsoft Visio, SVG Export SQL Database Performance Overview.svg Page-1 -->
<svg xmlns="http://www.w3.org/2000/svg" xmlns:xlink="http://www.w3.org/1999/xlink" xmlns:ev="http://www.w3.org/2001/xml-events"
		width="0.944882in" height="1.33858in" viewBox="0 0 68.0315 96.378" xml:space="preserve" color-interpolation-filters="sRGB"
		class="st8">
	<style type="text/css">
	<![CDATA[
		.st1 {fill:none;stroke:none;stroke-linecap:butt;stroke-width:0.0435215}
		.st2 {fill:#57a300;stroke:none;stroke-linecap:butt;stroke-width:0.0435215}
		.st3 {fill:#b8d432;stroke:none;stroke-linecap:butt;stroke-width:0.0435215}
		.st4 {fill:#ffb900;stroke:none;stroke-linecap:butt;stroke-width:0.0435215}
		.st5 {fill:#dd5900;stroke:none;stroke-linecap:butt;stroke-width:0.0435215}
		.st6 {fill:#49a5dc;stroke:none;stroke-linecap:butt;stroke-width:0.0435215}
		.st7 {fill:#83e7f1;stroke:none;stroke-linecap:butt;stroke-width:0.0435215}
		.st8 {fill:none;fill-rule:evenodd;font-size:12px;overflow:visible;stroke-linecap:square;stroke-miterlimit:3}
	]]>
	</style>

	<g>
		<title>Page-1</title>
		<g id="group1327-1" transform="translate(5.66929,-34.0157)">
			<title>SQL Database Performance Overview</title>
			<g id="group1328-2">
				<title>Sheet.1328</title>
				<g id="shape1329-3">
					<title>Sheet.1329</title>
					<rect x="0" y="39.6891" width="56.6929" height="56.6889" class="st1"/>
				</g>
				<g id="shape1330-5" transform="translate(0.0604746,-30.2311)">
					<title>Sheet.1330</title>
					<path d="M6.44 80.13 C2.75 84.6 0.39 90.22 0 96.38 L15.18 96.38 C15.45 94.38 16.17 92.53 17.24 90.92 L6.44 80.13
								 Z" class="st2"/>
				</g>
				<g id="shape1331-7" transform="translate(10.2807,-39.4669)">
					<title>Sheet.1331</title>
					<path d="M16.18 79.15 C10.05 79.56 4.45 81.9 0 85.59 L10.79 96.38 C12.39 95.33 14.21 94.62 16.18 94.33 L16.18
								 79.15 Z" class="st3"/>
				</g>
				<g id="shape1332-9" transform="translate(30.2413,-39.4669)">
					<title>Sheet.1332</title>
					<path d="M16.17 85.59 C11.72 81.91 6.13 79.56 0 79.15 L0 94.33 C1.97 94.62 3.79 95.33 5.38 96.38 L16.17 85.59
								 Z" class="st4"/>
				</g>
				<g id="shape1333-11" transform="translate(39.4052,-26.5223)">
					<title>Sheet.1333</title>
					<path d="M17.22 96.38 C17.26 95.75 17.29 95.12 17.29 94.49 C17.29 87.62 14.85 81.33 10.79 76.42 L0 87.21 C1.37
								 89.3 2.17 91.8 2.17 94.49 C2.17 95.13 2.13 95.76 2.04 96.38 L17.22 96.38 Z" class="st5"/>
				</g>
				<g id="shape1334-13" transform="translate(0.0604746,-10.2074)">
					<title>Sheet.1334</title>
					<path d="M6.44 96.38 C2.75 91.91 0.39 86.28 0 80.13 L15.18 80.13 C15.45 82.12 16.17 83.98 17.24 85.59 L6.44 96.38
								 Z" class="st2"/>
				</g>
				<g id="group1335-15" transform="translate(3.78168,-2.55795E-13)">
					<title>Sheet.1335</title>
					<g id="shape1336-16">
						<title>Sheet.1336</title>
						<path d="M28.21 81.23 L37.79 90.81 L37.79 96.38 L32.22 96.38 L22.64 86.8 C20.42 88.07 17.85 88.81 15.11 88.81
									 C6.77 88.81 0 82.03 0 73.69 C0 65.37 6.79 58.58 15.11 58.58 C23.45 58.58 30.23 65.35 30.23 73.69
									 C30.23 76.43 29.5 79.01 28.21 81.23 Z" class="st6"/>
					</g>
					<g id="shape1337-18" transform="translate(3.77765,-11.3483)">
						<title>Sheet.1337</title>
						<path d="M22.67 85.04 C22.67 78.78 17.59 73.71 11.33 73.71 C5.07 73.71 0 78.77 0 85.04 C0 91.29 5.08 96.38
									 11.33 96.38 C17.61 96.38 22.67 91.31 22.67 85.04 Z" class="st7"/>
					</g>
				</g>
			</g>
		</g>
	</g>
</svg>
